device pages/img/barrel-full.svg

<svg width="228" height="279" viewBox="0 0 228 279" fill="none" xmlns="http://www.w3.org/2000/svg">
<rect x="42" y="46.1064" width="147" height="194" fill="#3C0803"/>
<rect x="18" y="208.106" width="22" height="43" fill="#3C0803"/>
<path d="M228 14.8545V3.10645H0V14.8545H11.2151V134.732H0V146.48H11.2151V266.358H0V278.106H228V266.358H216.785V146.48H228V134.732H216.785V14.8545H228ZM34.1224 240.705C34.1224 243.941 31.4976 246.579 28.2763 246.579C25.0549 246.579 22.4301 243.941 22.4301 240.705V41.9469C22.4301 38.7102 25.0549 36.0729 28.2763 36.0729C31.4976 36.0729 34.1224 38.7102 34.1224 41.9469V240.705ZM115.969 222.963C115.372 222.963 114.656 222.963 114.06 222.963C103.799 222.963 93.8964 221.045 85.0675 217.688C48.6782 203.782 34.719 163.863 55.0016 133.414L113.224 56.8118L166.556 129.338C197.457 167.579 168.465 221.764 115.969 222.963Z" fill="#DEE8EC"/>
<path d="M104.965 1.96405C106.52 1.36577 108.076 0.169218 109.631 0.169218C135.956 0.0495629 162.28 -0.0700925 188.604 0.0495629C193.27 0.0495629 195.305 3.28026 194.946 7.34854C194.467 12.9723 193.27 18.4765 192.433 24.1003C191.954 27.0917 191.835 30.2027 190.997 33.0744C190.518 34.7496 188.724 37.2624 187.647 37.2624C185.852 37.2624 183.818 35.5872 182.621 34.1513C181.664 33.0744 181.784 31.0403 181.425 29.4848C180.348 24.8182 180.826 20.391 174.126 17.8782C173.049 17.3996 172.091 15.4851 171.134 14.1689C168.98 11.2972 163.357 9.8613 161.681 9.62199C144.212 7.46819 131.528 6.63061 114.059 4.59646C111.067 4.2375 108.196 3.75888 105.204 3.39991C105.084 2.92129 105.084 2.44267 104.965 1.96405Z" fill="#3C0803"/>
<path d="M47.9922 49.0635V48.748C47.9922 48.1947 48.1693 47.7437 48.5234 47.395C48.8776 47.0409 49.3535 46.8638 49.9512 46.8638C50.571 46.8638 51.0552 47.0409 51.4038 47.395C51.758 47.7437 51.9351 48.1947 51.9351 48.748V49.0635C51.9351 49.6113 51.7607 50.0596 51.4121 50.4082C51.0635 50.7568 50.582 50.9312 49.9678 50.9312C49.3646 50.9312 48.8831 50.7568 48.5234 50.4082C48.1693 50.0596 47.9922 49.6113 47.9922 49.0635ZM60.7754 43.0205V55.1064H58.2852V43.0205H60.7754ZM65.5898 48.1836V50.126H60.0947V48.1836H65.5898ZM66.1709 43.0205V44.9712H60.0947V43.0205H66.1709ZM74.2891 43.0205H76.771V51.0059C76.771 51.9355 76.5718 52.7186 76.1733 53.355C75.7804 53.9914 75.2354 54.4701 74.5381 54.791C73.8464 55.112 73.0495 55.2725 72.1475 55.2725C71.2454 55.2725 70.443 55.112 69.7402 54.791C69.043 54.4701 68.4951 53.9914 68.0967 53.355C67.7038 52.7186 67.5073 51.9355 67.5073 51.0059V43.0205H69.9976V51.0059C69.9976 51.5482 70.0833 51.9909 70.2549 52.334C70.4264 52.6771 70.6727 52.9289 70.9937 53.0894C71.3201 53.2498 71.7048 53.3301 72.1475 53.3301C72.6012 53.3301 72.9858 53.2498 73.3013 53.0894C73.6222 52.9289 73.8657 52.6771 74.0317 52.334C74.2033 51.9909 74.2891 51.5482 74.2891 51.0059V43.0205ZM86.5908 53.1641V55.1064H80.5063V53.1641H86.5908ZM81.3115 43.0205V55.1064H78.8213V43.0205H81.3115ZM95.7881 53.1641V55.1064H89.7036V53.1641H95.7881ZM90.5088 43.0205V55.1064H88.0186V43.0205H90.5088Z" fill="black"/>
</svg>

<?xml version="1.0" encoding="utf-8"?>
<!-- Generator: Adobe Illustrator 23.0.5, SVG Export Plug-In . SVG Version: 6.00 Build 0)  -->
<svg version="1.1" id="Слой_1" xmlns="http://www.w3.org/2000/svg" xmlns:xlink="http://www.w3.org/1999/xlink" x="0px" y="0px"
	 viewBox="0 0 228 279" style="enable-background:new 0 0 228 279;" xml:space="preserve">
<style type="text/css">
	.st0{fill:#3C0803;}
	.st1{fill:#DEE8EC;}
</style>
<rect x="42" y="46.1" class="st0" width="147" height="194"/>
<path class="st1" d="M228,14.9V3.1H0v11.7h11.2v119.9H0v11.7h11.2v119.9H0v11.7h228v-11.7h-11.2V146.5H228v-11.7h-11.2V14.9H228z
	 M34.1,240.7c0,3.2-2.6,5.9-5.8,5.9c-3.2,0-5.8-2.6-5.8-5.9V41.9c0-3.2,2.6-5.9,5.8-5.9c3.2,0,5.8,2.6,5.8,5.9V240.7z M116,223
	c-0.6,0-1.3,0-1.9,0c-10.3,0-20.2-1.9-29-5.3c-36.4-13.9-50.3-53.8-30.1-84.3l58.2-76.6l53.3,72.5C197.5,167.6,168.5,221.8,116,223z
	"/>
<path class="st0" d="M105,2c1.6-0.6,3.1-1.8,4.7-1.8C136,0,162.3-0.1,188.6,0c4.7,0,6.7,3.2,6.3,7.3c-0.5,5.6-1.7,11.1-2.5,16.8
	c-0.5,3-0.6,6.1-1.4,9c-0.5,1.7-2.3,4.2-3.3,4.2c-1.8,0-3.8-1.7-5-3.1c-1-1.1-0.8-3.1-1.2-4.7c-1.1-4.7-0.6-9.1-7.3-11.6
	c-1.1-0.5-2-2.4-3-3.7c-2.2-2.9-7.8-4.3-9.5-4.5c-17.5-2.2-30.2-3-47.6-5c-3-0.4-5.9-0.8-8.9-1.2C105.1,2.9,105.1,2.4,105,2z"/>
<path d="M48,49.1v-0.3c0-0.6,0.2-1,0.5-1.4c0.4-0.4,0.8-0.5,1.4-0.5c0.6,0,1.1,0.2,1.5,0.5c0.4,0.3,0.5,0.8,0.5,1.4v0.3
	c0,0.5-0.2,1-0.5,1.3c-0.3,0.3-0.8,0.5-1.4,0.5c-0.6,0-1.1-0.2-1.4-0.5C48.2,50.1,48,49.6,48,49.1z M60.8,43v12.1h-2.5V43H60.8z
	 M65.6,48.2v1.9h-5.5v-1.9H65.6z M66.2,43v2h-6.1v-2H66.2z M74.3,43h2.5v8c0,0.9-0.2,1.7-0.6,2.3c-0.4,0.6-0.9,1.1-1.6,1.4
	c-0.7,0.3-1.5,0.5-2.4,0.5c-0.9,0-1.7-0.2-2.4-0.5c-0.7-0.3-1.2-0.8-1.6-1.4c-0.4-0.6-0.6-1.4-0.6-2.3v-8H70v8c0,0.5,0.1,1,0.3,1.3
	c0.2,0.3,0.4,0.6,0.7,0.8c0.3,0.2,0.7,0.2,1.2,0.2c0.5,0,0.8-0.1,1.2-0.2c0.3-0.2,0.6-0.4,0.7-0.8c0.2-0.3,0.3-0.8,0.3-1.3V43z
	 M86.6,53.2v1.9h-6.1v-1.9H86.6z M81.3,43v12.1h-2.5V43H81.3z M95.8,53.2v1.9h-6.1v-1.9H95.8z M90.5,43v12.1H88V43H90.5z"/>
</svg>
